usr/share/icons/biglinux-icons-material/symbolic/devices/video-joined-displays-symbolic.svg

<svg width="16" height="16" version="1.1" xmlns="http://www.w3.org/2000/svg">
 <path d="m8 2c-0.554 0-1 0.446-1 1v1h-6c-0.554 0-1 0.446-1 1v6c0 0.554 0.446 1 1 1h6c0.1828 0 0.35286-0.049794 0.5-0.13477 0.14714 0.084972 0.3172 0.13477 0.5 0.13477h7c0.554 0 1-0.446 1-1v-8c0-0.554-0.446-1-1-1h-7zm0 1h7v8h-7v-6-2zm-7 2h6v6h-6v-6zm1 8v1h5v-1h-5zm7 0v1h5v-1h-5z" fill="#363636"/>
</svg>

<svg xmlns="http://www.w3.org/2000/svg" width="16" height="16"><path fill="#dedede" d="M8 2c-.554 0-1 .446-1 1v1H1c-.554 0-1 .446-1 1v6c0 .554.446 1 1 1h6c.183 0 .353-.05.5-.135A.996.996 0 0 0 8 12h7c.554 0 1-.446 1-1V3c0-.554-.446-1-1-1H8zm0 1h7v8H8V3zM1 5h6v6H1V5zm1 8v1h5v-1H2zm7 0v1h5v-1H9z"/></svg>
